svgs/vendetta_manager.svg

<svg width="192" height="192" viewBox="0 0 192 192" fill="none" xmlns="http://www.w3.org/2000/svg">
<path d="M172 37.4426C172 33.0468 168.453 29.4745 164.058 29.4428L110.641 29.058C106.2 29.0261 102.583 32.617 102.583 37.0578V155.047C102.583 159.465 106.165 163.047 110.583 163.047H164C168.418 163.047 172 159.465 172 155.047V37.4426Z" stroke="black" stroke-width="8"/>
<path d="M87.0236 29H22.3937C21.0717 29 20 30.0172 20 31.272V160.776C20 162.03 21.0717 163.047 22.3937 163.047H87.0236C88.3457 163.047 89.4173 162.03 89.4173 160.776V31.272C89.4173 30.0172 88.3457 29 87.0236 29Z" stroke="black" stroke-width="8"/>
<path d="M54.7087 40.9685C56.6917 40.9685 58.2992 39.6289 58.2992 37.9764C58.2992 36.3239 56.6917 34.9842 54.7087 34.9842C52.7256 34.9842 51.1181 36.3239 51.1181 37.9764C51.1181 39.6289 52.7256 40.9685 54.7087 40.9685Z" fill="black"/>
<path d="M128 39H145.952" stroke="black" stroke-width="10" stroke-linecap="round"/>
<path d="M77.0417 124.438L71.625 135.271C64.7255 132.396 57.5809 129.521 49.9854 124.573C47.3367 122.847 45.7306 119.915 45.667 116.754C45.3366 100.528 49.1431 84.216 58.7814 66.9694C60.0428 64.712 62.1445 63.0572 64.582 62.1919C70.3968 60.1281 74.3442 58.5329 81.1042 57.4062L85.1667 64.8542H86.5M114.958 124.438L120.375 135.271C127.275 132.396 134.419 129.521 142.015 124.573C144.663 122.847 146.269 119.915 146.334 116.754C146.663 100.528 142.857 84.216 133.219 66.9694C131.957 64.712 129.856 63.0572 127.418 62.1919C121.603 60.1281 117.656 58.5329 110.896 57.4062L106.833 64.8542H105.5M68.9167 119.021C68.9167 119.021 77.0427 123.084 87 124.915M123.083 119.021C123.083 119.021 114.957 123.084 105 124.915" stroke="black" stroke-width="10" stroke-linecap="round" stroke-linejoin="round"/>
<path d="M79.0729 109.542C83.9342 109.542 87.875 104.995 87.875 99.3854C87.875 93.7763 83.9342 89.2292 79.0729 89.2292C74.2117 89.2292 70.2708 93.7763 70.2708 99.3854C70.2708 104.995 74.2117 109.542 79.0729 109.542Z" fill="black"/>
<path d="M112.927 109.542C117.788 109.542 121.729 104.995 121.729 99.3854C121.729 93.7763 117.788 89.2292 112.927 89.2292C108.066 89.2292 104.125 93.7763 104.125 99.3854C104.125 104.995 108.066 109.542 112.927 109.542Z" fill="black"/>
</svg>

<svg width="192" height="192" viewBox="0 0 192 192" fill="none" xmlns="http://www.w3.org/2000/svg"><path d="M172 37.443a8 8 0 0 0-7.942-8l-53.417-.385a8 8 0 0 0-8.058 8v117.989a8 8 0 0 0 8 8H164a8 8 0 0 0 8-8V37.443ZM87.024 29h-64.63C21.072 29 20 30.017 20 31.272v129.504c0 1.254 1.072 2.271 2.394 2.271h64.63c1.322 0 2.393-1.017 2.393-2.271V31.272c0-1.255-1.071-2.272-2.393-2.272Z" stroke="#000" stroke-width="8"/><path d="M54.709 40.968c1.983 0 3.59-1.34 3.59-2.992s-1.607-2.992-3.59-2.992c-1.983 0-3.59 1.34-3.59 2.992 0 1.653 1.607 2.992 3.59 2.992Z" fill="#000"/><path d="M128 39h17.952" stroke="#000" stroke-width="10" stroke-linecap="round"/><path d="m77.042 124.438-5.417 10.833c-6.9-2.875-14.044-5.75-21.64-10.698a9.55 9.55 0 0 1-4.318-7.819c-.33-16.226 3.476-32.538 13.114-49.785 1.262-2.257 3.364-3.912 5.801-4.777 5.815-2.064 9.762-3.66 16.522-4.786l4.063 7.448H86.5m28.458 59.584 5.417 10.833c6.9-2.875 14.044-5.75 21.64-10.698a9.555 9.555 0 0 0 4.319-7.819c.329-16.226-3.477-32.538-13.115-49.785-1.262-2.257-3.363-3.912-5.801-4.777-5.815-2.064-9.762-3.66-16.522-4.786l-4.063 7.448H105.5m-36.583 54.167s8.126 4.063 18.083 5.894m36.083-5.894s-8.126 4.063-18.083 5.894" stroke="#000" stroke-width="10" stroke-linecap="round" stroke-linejoin="round"/><path d="M79.073 109.542c4.861 0 8.802-4.547 8.802-10.157 0-5.609-3.94-10.156-8.802-10.156-4.861 0-8.802 4.547-8.802 10.156 0 5.61 3.94 10.157 8.802 10.157ZM112.927 109.542c4.861 0 8.802-4.547 8.802-10.157 0-5.609-3.941-10.156-8.802-10.156s-8.802 4.547-8.802 10.156c0 5.61 3.941 10.157 8.802 10.157Z" fill="#000"/></svg>
